ui/StatusQ/src/assets/img/icons/linkPreviewThumbnails/giphy.svg

<svg fill="none" height="40" viewBox="0 0 40 40" width="40" xmlns="http://www.w3.org/2000/svg" xmlns:xlink="http://www.w3.org/1999/xlink"><clipPath id="a"><path d="m10 10h20v20h-20z"/></clipPath><rect fill="#000" height="40" rx="20" width="40"/><g clip-path="url(#a)"><path clip-rule="evenodd" d="m14.1709 12.2861h11.6591v15.4281h-11.6601z" fill="#000" fill-rule="evenodd"/><path d="m11.8398 11.7139h2.331v16.572h-2.331z" fill="#04ff8e"/><path d="m25.8291 16.2861h2.3309v11.9999h-2.3309z" fill="#8e2eff"/><path d="m11.8398 27.7139h16.32v2.2861h-16.32z" fill="#00c5ff"/><path d="m11.8398 10h9.326v2.286h-9.326z" fill="#fff152"/><path d="m25.829 14.571v-2.285h-2.332v-2.286h-2.331v6.857h6.994v-2.286" fill="#ff5b5b"/><path d="m25.8291 19.1434v-2.286h2.3309" fill="#551c99"/><path clip-rule="evenodd" d="m21.1661 10v2.286h-2.3321" fill="#999131" fill-rule="evenodd"/></g></svg>

<svg width="40" height="40" viewBox="0 0 40 40" fill="none" xmlns="http://www.w3.org/2000/svg">
<rect width="40" height="40" rx="20" fill="black"/>
<g clip-path="url(#clip0)">
<path fill-rule="evenodd" clip-rule="evenodd" d="M14.1709 12.2861H25.83V27.7142H14.1699L14.1709 12.2861Z" fill="black"/>
<path d="M11.8398 11.7139H14.1708V28.2859H11.8398V11.7139Z" fill="#04FF8E"/>
<path d="M25.8291 16.2861H28.16V28.286H25.8291V16.2861Z" fill="#8E2EFF"/>
<path d="M11.8398 27.7139H28.1598V30H11.8398V27.7139Z" fill="#00C5FF"/>
<path d="M11.8398 10H21.1658V12.286H11.8398V10Z" fill="#FFF152"/>
<path d="M25.829 14.571V12.286H23.497V10H21.166V16.857H28.16V14.571" fill="#FF5B5B"/>
<path d="M25.8291 19.1434V16.8574H28.16" fill="#551C99"/>
<path fill-rule="evenodd" clip-rule="evenodd" d="M21.1661 10V12.286H18.834" fill="#999131"/>
</g>
<defs>
<clipPath id="clip0">
<rect width="20" height="20" fill="white" transform="translate(10 10)"/>
</clipPath>
</defs>
</svg>
